X:138
T:Foxhunter's Jig
M:9/8
L:1/8
K:D
"D"FGF F2D "G"G2E | "D"FGF F2D "A7"E2D | "D"FGF F2D "G"G2B | "D"AFD DEF E2D :|
|: "G"B=cB BAG "D"FGA | "Em"B2E E2F "G"G2B | "D"ABc dcB ABc | "D"d2D DEF "A7"F2D :| 
|: "D"fgf f2d "G"g2e | "D"fgf f2d "A7"e2d | "D"fgf f2d "G"g2b | "D"afd def e2d :|
|: "G"gfe d=cB "D"AGA | "Em"B2E E2F "G"G2A | "D"ABc dcB ABc | d2D DEF E2D :|

%%newpage

